X:1
T:Title
L:1/8
M:2/2
K:Bb
V:1 treble nm="Grand Piano"
V:1
 z4 z2 D2 | G2 A2 B2 A2 | GG B2 A2 G2 | A2 D2 E4- | E6 C2 | F2 G2 A2 G2 | FF A2 G2 FF | G2 EE D4- | %8
 D6 D2 | G2 A2 B2 A2 | GG B2 A2 G2 | A2 D2 E4- | E6 C2 | F2 G2 A2 G2 | FF A2 G2 FF | G2 EE D2 F2 | %16
 F4 =E3 C | E4 D2 FF | F4 =E3 C | E4 D2 GG | G4 ^F3 D | B4 B2 BB | B2 B2 c2 d2 | cBBA A3 A | %24
 A3 A B2 c2 | BAAG G2 GG | G4 ^F3 C | E4 D2 GG | G4 ^F3 C | E4 D4- | D8 |] %31

